symbols/web/3k/materialsymbolsrounded/3k_wght500fill1_24px.svg

<svg xmlns="http://www.w3.org/2000/svg" height="24" width="24"><path d="M13.75 15q.325 0 .538-.213.212-.212.212-.537v-1.5l1.525 1.95q.1.125.238.212.137.088.312.088.475 0 .663-.425.187-.425-.088-.775l-1.4-1.8 1.45-1.85q.275-.35.063-.75-.213-.4-.638-.4-.175 0-.325.075-.15.075-.275.225L14.5 11.25V9.725q0-.3-.212-.513Q14.075 9 13.75 9q-.325 0-.537.212Q13 9.425 13 9.75v4.525q0 .3.213.512.212.213.537.213ZM7.3 15h2.75q.425 0 .713-.288.287-.287.287-.712v-4q0-.425-.287-.713Q10.475 9 10.05 9H7.275q-.3 0-.512.212-.213.213-.213.538 0 .325.213.537.212.213.537.213h2.25v1H8.025q-.2 0-.337.15-.138.15-.138.35 0 .2.15.35.15.15.35.15h1.5v1H7.275q-.3 0-.512.212-.213.213-.213.538 0 .325.213.537.212.213.537.213Zm-2.225 6.2q-.95 0-1.612-.662-.663-.663-.663-1.613V5.075q0-.95.663-1.613.662-.662 1.612-.662h13.85q.95 0 1.613.662.662.663.662 1.613v13.85q0 .95-.662 1.613-.663.662-1.613.662Z"/></svg>

<svg xmlns="http://www.w3.org/2000/svg" height="24" width="24"><path d="M13.75 15Q14.075 15 14.288 14.787Q14.5 14.575 14.5 14.25V12.75L16.025 14.7Q16.125 14.825 16.263 14.912Q16.4 15 16.575 15Q17.05 15 17.238 14.575Q17.425 14.15 17.15 13.8L15.75 12L17.2 10.15Q17.475 9.8 17.263 9.4Q17.05 9 16.625 9Q16.45 9 16.3 9.075Q16.15 9.15 16.025 9.3L14.5 11.25V9.725Q14.5 9.425 14.288 9.212Q14.075 9 13.75 9Q13.425 9 13.213 9.212Q13 9.425 13 9.75V14.275Q13 14.575 13.213 14.787Q13.425 15 13.75 15ZM7.3 15H10.05Q10.475 15 10.763 14.712Q11.05 14.425 11.05 14V10Q11.05 9.575 10.763 9.287Q10.475 9 10.05 9H7.275Q6.975 9 6.763 9.212Q6.55 9.425 6.55 9.75Q6.55 10.075 6.763 10.287Q6.975 10.5 7.3 10.5H9.55V11.5H8.025Q7.825 11.5 7.688 11.65Q7.55 11.8 7.55 12Q7.55 12.2 7.7 12.35Q7.85 12.5 8.05 12.5H9.55V13.5H7.275Q6.975 13.5 6.763 13.712Q6.55 13.925 6.55 14.25Q6.55 14.575 6.763 14.787Q6.975 15 7.3 15ZM5.075 21.2Q4.125 21.2 3.463 20.538Q2.8 19.875 2.8 18.925V5.075Q2.8 4.125 3.463 3.462Q4.125 2.8 5.075 2.8H18.925Q19.875 2.8 20.538 3.462Q21.2 4.125 21.2 5.075V18.925Q21.2 19.875 20.538 20.538Q19.875 21.2 18.925 21.2Z"/></svg>
